X:17
T:Andy Renwick's Ferret                                                                             
M:C|                                                                                                
L:1/8                                                                                               
R:reel                                                                                              
K:ADor                                                                                              
cA~A2 ABcd|eaag agef|gd~d2 egde|degd egdB|                                                          
cA~A2 ABcd|eaag agef|gd~d2 efgd|1 edgB A2AB:|2 edgB A2Bd||                                          
eaag ageg|a2ag agef|gd~d2 egde|degd egdg|                                                           
eaag ageg|a2ag agef|gd~d2 efgd|edgB A2Bd|                                                           
eaag ageg|a2ag agef|gd~d2 egde|degd egdB|                                                           
cA~A2 ABcd|eaag agef|gd~d2 efgd|edgB A2AB|                                                          
|:cA~A2 ~A2cA|~A2cA agef|gd~d2 ^cdcd|~d2^cd cddB|                                                   
cA~A2 ~A2cA|~A2cA agef|gd~d2 efgd|1 edgB A2AB:|2 edgB A2Bd||                                        
|: eaag ageg|ageg ~a3f|gd~d2 eggd|^cdgd eggd|                                                       
|1 eaag ageg|ageg ~a3f|gd~d2 efgd|edgB A2Bd :|                                                      
|2 cA~A2 ~A2cA|~A2cA agef|gd~d2 efgd| edgB A2AB |>|
